#include "../../lib/Color.h"

shader apColor
[[
    string category = "utility",
    string help = "Simple color pass-through operation",
    int rfm_nodeid = 0x0013cb85,
    string rfm_classification = "rendernode/RenderMan/pattern/apettit/utility"
]]
(
	color inputRGB = COLOR_DEF
	[[
		string label = "Color",
		int connectable = 0
	]],
    
    COLOR_OUTPUTS
)
{
    resultRGB = inputRGB;
    COLOR_OUTPUTS_SET;
} 