#include "../../lib/Float.h"

shader apFloatClamp
[[
    string category = "utility",
    string help = "Clamp float value",
    int rfm_nodeid = 0x0013cb87,
    string rfm_classification = "rendernode/RenderMan/pattern/apettit/utility"
]]
(
    FLOAT_INPUTS,
    FLOAT_TAG_INPUTS(min),
    FLOAT_TAG_INPUTS(max),

    FLOAT_OUTPUTS
)
{
    resultF = clamp(inputF, inputF_min, inputF_max); 

    FLOAT_OUTPUTS_SET;
}