#include "../../lib/Float.h"

shader apFloat
[[
    string category = "utility",
    string help = "Simple float pass-through operation",
    int rfm_nodeid = 0x0013cb92,
    string rfm_classification = "rendernode/RenderMan/pattern/apettit/utility"
]]
(
    FLOAT_INPUTS,

    FLOAT_OUTPUTS
)
{
    resultF = inputF;
    FLOAT_OUTPUTS_SET;

}